static/CL.svg

<svg fill="none" height="117" viewBox="0 0 175 117" width="175" xmlns="http://www.w3.org/2000/svg"><path d="m.00000012 58.2c0-18.7733 4.37332988-33.0667 13.11999988-42.88 8.8533-9.92 21.6533-14.880003 38.4-14.880003 15.5733 0 27.52 5.493333 35.84 16.480003l-10.56 8.64c-6.08-8-14.5067-12-25.28-12-11.4133 0-20.16 3.84-26.24 11.52-5.9733 7.5733-8.96 18.6133-8.96 33.12 0 14.9333 3.0933 26.24 9.28 33.92 6.2933 7.68 15.52 11.52 27.68 11.52 8.32 0 17.3333-2.507 27.04-7.52l4.48 12c-3.9467 2.56-8.9067 4.587-14.88 6.08s-12.2667 2.24-18.88 2.24c-16.4267 0-29.0667-5.013-37.92-15.04-8.74667-10.0267-13.11999988-24.4267-13.11999988-43.2zm107.31899988-56.48h15.2v100h51.84v13.28h-67.04z" fill="#fff"/></svg>

<svg width="175" height="117" viewBox="0 0 175 117" fill="none" xmlns="http://www.w3.org/2000/svg">
<path d="M1.19209e-07 58.2C1.19209e-07 39.4267 4.37333 25.1333 13.12 15.32C21.9733 5.4 34.7733 0.439997 51.52 0.439997C67.0933 0.439997 79.04 5.93333 87.36 16.92L76.8 25.56C70.72 17.56 62.2933 13.56 51.52 13.56C40.1067 13.56 31.36 17.4 25.28 25.08C19.3067 32.6533 16.32 43.6933 16.32 58.2C16.32 73.1333 19.4133 84.44 25.6 92.12C31.8933 99.8 41.12 103.64 53.28 103.64C61.6 103.64 70.6133 101.133 80.32 96.12L84.8 108.12C80.8533 110.68 75.8933 112.707 69.92 114.2C63.9467 115.693 57.6533 116.44 51.04 116.44C34.6133 116.44 21.9733 111.427 13.12 101.4C4.37333 91.3733 1.19209e-07 76.9733 1.19209e-07 58.2ZM107.319 1.72H122.519V101.72H174.359V115H107.319V1.72Z" fill="white"/>
</svg>
